src/assets/images/left-panel/Sales-Quotations.svg

<?xml version="1.0" encoding="UTF-8"?>
<svg enable-background="new 0 0 512 512" version="1.1" viewBox="0 0 512 512" xml:space="preserve" xmlns="http://www.w3.org/2000/svg">
	<polygon points="320 0 320 128 448 128"/>
	<path d="m320 160c-17.632 0-32-14.368-32-32v-128h-192c-17.632 0-32 14.368-32 32v448c0 17.664 14.368 32 32 32h320c17.664 0 32-14.336 32-32v-320h-128zm-144-62.016v-17.984c0-8.832 7.168-16 16-16s16 7.168 16 16v18.016c10.016 2.272 19.36 6.496 27.072 12.768 6.88 5.568 7.904 15.648 2.304 22.496-5.6 6.88-15.68 7.872-22.496 2.304-6.048-4.896-14.176-7.584-22.88-7.584-17.344 0-32 10.976-32 24s14.656 24 32 24c35.296 0 64 25.12 64 56 0 26.016-20.48 47.744-48 54.016v17.984c0 8.832-7.168 16-16 16s-16-7.168-16-16v-18.016c-10.016-2.272-19.36-6.496-27.072-12.768-6.88-5.6-7.904-15.68-2.304-22.528 5.6-6.912 15.648-7.872 22.496-2.304 6.048 4.928 14.176 7.616 22.88 7.616 17.344 0 32-10.976 32-24s-14.656-24-32-24c-35.296 0-64-25.12-64-56 0-26.016 20.48-47.744 48-54.016zm192 350.02h-224c-8.832 0-16-7.168-16-16s7.168-16 16-16h224c8.832 0 16 7.168 16 16s-7.168 16-16 16zm0-64h-224c-8.832 0-16-7.168-16-16s7.168-16 16-16h224c8.832 0 16 7.168 16 16s-7.168 16-16 16zm0-64h-64c-8.832 0-16-7.168-16-16s7.168-16 16-16h64c8.832 0 16 7.168 16 16s-7.168 16-16 16zm0-64h-64c-8.832 0-16-7.168-16-16s7.168-16 16-16h64c8.832 0 16 7.136 16 16 0 8.832-7.168 16-16 16z"/>
</svg>

<?xml version="1.0" encoding="iso-8859-1"?>
<!-- Generator: Adobe Illustrator 19.0.0, SVG Export Plug-In . SVG Version: 6.00 Build 0)  -->
<svg version="1.1" id="Capa_1" xmlns="http://www.w3.org/2000/svg" xmlns:xlink="http://www.w3.org/1999/xlink" x="0px" y="0px"
	 viewBox="0 0 512 512" style="enable-background:new 0 0 512 512;" xml:space="preserve">
	 <!-- <style type="text/css">
	 path{fill:#428BCA;}
	 </style> -->
<g>
	<g>
		<polygon points="320,0 320,128 448,128 		"/>
	</g>
</g>
<g>
	<g>
		<path d="M320,160c-17.632,0-32-14.368-32-32V0H96C78.368,0,64,14.368,64,32v448c0,17.664,14.368,32,32,32h320
			c17.664,0,32-14.336,32-32V160H320z M176,97.984V80c0-8.832,7.168-16,16-16c8.832,0,16,7.168,16,16v18.016
			c10.016,2.272,19.36,6.496,27.072,12.768c6.88,5.568,7.904,15.648,2.304,22.496c-5.6,6.88-15.68,7.872-22.496,2.304
			C208.832,130.688,200.704,128,192,128c-17.344,0-32,10.976-32,24s14.656,24,32,24c35.296,0,64,25.12,64,56
			c0,26.016-20.48,47.744-48,54.016V304c0,8.832-7.168,16-16,16c-8.832,0-16-7.168-16-16v-18.016
			c-10.016-2.272-19.36-6.496-27.072-12.768c-6.88-5.6-7.904-15.68-2.304-22.528c5.6-6.912,15.648-7.872,22.496-2.304
			C175.168,253.312,183.296,256,192,256c17.344,0,32-10.976,32-24s-14.656-24-32-24c-35.296,0-64-25.12-64-56
			C128,125.984,148.48,104.256,176,97.984z M368,448H144c-8.832,0-16-7.168-16-16c0-8.832,7.168-16,16-16h224
			c8.832,0,16,7.168,16,16C384,440.832,376.832,448,368,448z M368,384H144c-8.832,0-16-7.168-16-16c0-8.832,7.168-16,16-16h224
			c8.832,0,16,7.168,16,16C384,376.832,376.832,384,368,384z M368,320h-64c-8.832,0-16-7.168-16-16c0-8.832,7.168-16,16-16h64
			c8.832,0,16,7.168,16,16C384,312.832,376.832,320,368,320z M368,256h-64c-8.832,0-16-7.168-16-16c0-8.832,7.168-16,16-16h64
			c8.832,0,16,7.136,16,16C384,248.832,376.832,256,368,256z"/>
	</g>
</g>
<g>
</g>
<g>
</g>
<g>
</g>
<g>
</g>
<g>
</g>
<g>
</g>
<g>
</g>
<g>
</g>
<g>
</g>
<g>
</g>
<g>
</g>
<g>
</g>
<g>
</g>
<g>
</g>
<g>
</g>
</svg>
